X: 4
T: The Longford Tinker
R: reel
M: 4/4
L: 1/8
K: Bmin
B3A B2dB|ABde gfed|~A2FB A2dB|ABde gfed|eBBA B2dB|ABde gfed|~A2FB A2dB|ABdf gece||d2fd egfe|dfaf g2fe|d2fd eg~g3|fa~a2 bgec|d2fd egfe|dfaf g3a|bagf gfed|Bdef gfed||


Tune 369	Setting 369

